!!!!SEGMENT: pl-cz--iii-454--006_maader-ludwik--litaniae-laurentanae-agnus-dei.krn
!!!cenid: 17xx:992
!!!COM: Maader, Ludwik
!!!COM-rismID: pe30020328
!!!CDT: <1794->1798
!!!CNT:
!!!OPR: Litaniae Laurentanae
!!!OTL: Agnus Dei
!!!OMV: 006
!!!PDT:
!!!AGN: Sacred; Mass
!!!SMS-siglum: PL-CZ
!!!SMS-shelfmark: III-454
!!!SMS-shelfwork: 001-006 M
!!!SMS-variant:
!!!SMS-altvar:
!!!NIFC-rismSourceID: 300000759
!!!NIFC-rismChildID: 300000759
!!!NIFC-islandoraID: pl-cz:38517
!!!URL-pdf-islandora: https://repozytorium.nifc.pl/islandora/object/pl-cz%3A38517/datastream/PDF/view
!!!URL-scan: https://polish.musicsources.pl/pl/lokalizacje/galeria/rekopisy/6933/1 @EN{Scan on Polish Music Sources Website} @PL{Skany w portalu Dziedzictwo Muzyki Polskiej w otwartym dostępie}
!!!IIIF:
!!!ONB-nifc: UWAGA: części Litanii: Kyrie, Sancta Maria, Rosa mystica, Salus infirmorum, Regina angelorum, Agnus Dei
!!!AIN: 1 alto 1 bass 2 oboe 1 organ 1 soprn 1 tenor 2 tromp 2 violn
!!!key: D
**kern	**fba	**dynam	**kern	**dynam	**kern	**dynam	**kern	**text	**kern	**text	**kern	**text	**kern	**text	**dynam	**kern	**kern	**kern	**kern
*	*	*	*group4	*	*group4	*	*group3	*	*group3	*	*group3	*	*group3	*	*	*group2	*group2	*group1	*group1
*part11	*	*part11	*part10	*part10	*part9	*part9	*part8	*part8	*part7	*part7	*part6	*part6	*part5	*part5	*part5	*part4	*part3	*part2	*part1
*staff11	*	*	*staff10	*	*staff9	*	*staff8	*staff8	*staff7	*staff7	*staff6	*staff6	*staff5	*staff5	*	*staff4	*staff3	*staff2	*staff1
*I"Organo.	*	*	*I"Violino Secondo	*	*I"Violino Primo.	*	*I"Baſso	*	*I"Tenore	*	*I"Alto.	*	*I"Canto.	*	*	*I"Clarino 2do in D:	*I"Clarino Primo in D.	*I"Oboe Secondo	*I"Oboe Primo
*I'org	*	*	*I'vl 2	*	*I'vl 1	*	*I'B	*	*I'T	*	*I'A	*	*I'S	*	*	*I'clno 2	*I'clno 1	*I'ob 2	*I'ob 1
*Iorgan	*	*	*Ivioln	*	*Ivioln	*	*Ibass	*	*Itenor	*	*Ialto	*	*Isoprn	*	*	*Itromp	*Itromp	*Ioboe	*Ioboe
*ICklav	*	*	*ICstr	*	*ICstr	*	*ICvox	*	*ICvox	*	*ICvox	*	*ICvox	*	*	*ICbras	*ICbras	*ICww	*ICww
*IGcont	*	*	*	*	*	*	*	*	*	*	*	*	*	*	*	*	*	*	*
*clefF4	*	*	*clefG2	*	*clefG2	*	*clefF4	*	*clefC4	*	*clefC3	*	*clefC1	*	*	*clefG2	*clefG2	*clefG2	*clefG2
*	*	*	*	*	*	*	*	*	*	*	*	*	*	*	*	*ITrd-1c-2	*ITrd-1c-2	*	*
*k[f#c#]	*	*	*k[f#c#]	*	*k[f#c#]	*	*k[f#c#]	*	*k[f#c#]	*	*k[f#c#]	*	*k[f#c#]	*	*	*k[f#c#]	*k[f#c#]	*k[f#c#]	*k[f#c#]
*D:	*	*	*D:	*	*D:	*	*D:	*	*D:	*	*D:	*	*D:	*	*	*D:	*D:	*D:	*D:
*M4/4	*	*	*M4/4	*	*M4/4	*	*M4/4	*	*M4/4	*	*M4/4	*	*M4/4	*	*	*M4/4	*M4/4	*M4/4	*M4/4
*met(c)	*	*	*met(c)	*	*met(c)	*	*met(c)	*	*met(c)	*	*met(c)	*	*met(c)	*	*	*met(c)	*met(c)	*met(c)	*met(c)
=1	=1	=1	=1	=1	=1	=1	=1	=1	=1	=1	=1	=1	=1	=1	=1	=1	=1	=1	=1
*	*	*	*	*	*	*below	*	*	*	*	*	*	*	*	*	*	*	*	*
!LO:TX:a:i:t=Solo	!	!	!	!	!	!	!	!	!LO:TX:a:i:t=Solo	!	!	!	!LO:TX:a:i:t=Solo	!	!	!	!LO:TX:a:t=15.	!	!
!LO:TX:a:t=Tarde	!	!	!LO:TX:a:t=Tarde	!	!LO:TX:a:t=Tarde	!	!LO:TX:a:i:t=Tarde	!	!LO:TX:a:t=Tarde	!	!LO:TX:a:i:t=Solo	!	!LO:TX:a:t=Adagio	!	!	!LO:TX:a:t=Tarde	!LO:TX:a:i:t=Tarde	!LO:TX:a:i:t=Tarde	!LO:TX:a:i:t=Tarde
!	!	!	!	!LO:DY:rj:t=piano	!	!LO:DY:t=piano	!	!	!	!	!	!	!LO:TX:t=P:problem=znaki [cc# f#]	!	!	!	!	!	!
8AA/	.	.	16r	p	16r	p	00r	.	4e\	Ag-	00r	.	00r	.	.	00r	00r	00r	00r
.	.	.	16c#/LL	.	16e/LL	.	.	.	.	.	.	.	.	.	.	.	.	.	.
8r	.	.	16c#/	.	16e/	.	.	.	.	.	.	.	.	.	.	.	.	.	.
.	.	.	16c#/JJ	.	16e/JJ	.	.	.	.	.	.	.	.	.	.	.	.	.	.
8AA/	.	.	16r	.	16r	.	.	.	(16d\LL	.	.	.	.	.	.	.	.	.	.
.	.	.	16c#/LL	.	16e/LL	.	.	.	16c#\JJ)	.	.	.	.	.	.	.	.	.	.
8r	.	.	16c#/	.	16e/	.	.	.	16B\LL	-nus	.	.	.	.	.	.	.	.	.
.	.	.	16c#/JJ	.	16e/JJ	.	.	.	16A\JJ	.	.	.	.	.	.	.	.	.	.
8BB/	6|	.	16r	.	16r	.	.	.	16A\LL	De-	.	.	.	.	.	.	.	.	.
.	.	.	16d/LL	.	16e/LL	.	.	.	16G#X\JJ	.	.	.	.	.	.	.	.	.	.
8r	.	.	16d/	.	16e/	.	.	.	8G#\	-i	.	.	.	.	.	.	.	.	.
.	.	.	16d/JJ	.	16e/JJ	.	.	.	.	.	.	.	.	.	.	.	.	.	.
8BB/	.	.	16r	.	16r	.	.	.	4r	.	.	.	.	.	.	.	.	.	.
.	.	.	16d/LL	.	16e/LL	.	.	.	.	.	.	.	.	.	.	.	.	.	.
8r	.	.	16d/	.	16e/	.	.	.	.	.	.	.	.	.	.	.	.	.	.
.	.	.	16d/JJ	.	16e/JJ	.	.	.	.	.	.	.	.	.	.	.	.	.	.
=2	=2	=2	=2	=2	=2	=2	=2	=2	=2	=2	=2	=2	=2	=2	=2	=2	=2	=2	=2
8G#X\	6_	.	16r	.	16r	.	.	.	8r	.	.	.	.	.	.	.	.	.	.
.	.	.	16B/LL	.	16e/LL	.	.	.	.	.	.	.	.	.	.	.	.	.	.
8r	.	.	16B/	.	16e/	.	.	.	8B\	qui	.	.	.	.	.	.	.	.	.
.	.	.	16B/JJ	.	16e/JJ	.	.	.	.	.	.	.	.	.	.	.	.	.	.
8G#\	.	.	16r	.	16r	.	.	.	8B\	tol-	.	.	.	.	.	.	.	.	.
.	.	.	16B/LL	.	16e/LL	.	.	.	.	.	.	.	.	.	.	.	.	.	.
8r	x	.	16B/	.	16e/	.	.	.	16c#\	-lis	.	.	.	.	.	.	.	.	.
.	.	.	16B/JJ	.	16e/JJ	.	.	.	16d\	pec-	.	.	.	.	.	.	.	.	.
!	!	!	!LO:LB:g=original	!	!	!	!	!	!	!	!	!	!	!	!	!	!	!	!
8A\	.	.	16r	.	16r	.	.	.	16d\LL	-ca-	.	.	.	.	.	.	.	.	.
.	.	.	16c#/LL	.	16e/LL	.	.	.	16c#\JJ	.	.	.	.	.	.	.	.	.	.
8r	.	.	16c#/	.	16e/	.	.	.	8c#\	-ta	.	.	.	.	.	.	.	.	.
.	.	.	16c#/JJ	.	16e/JJ	.	.	.	.	.	.	.	.	.	.	.	.	.	.
8AA/	.	.	16r	.	16r	.	.	.	4r	.	.	.	.	.	.	.	.	.	.
.	.	.	16c#/LL	.	16e/LL	.	.	.	.	.	.	.	.	.	.	.	.	.	.
8r	.	.	16c#/	.	16e/	.	.	.	.	.	.	.	.	.	.	.	.	.	.
.	.	.	16c#/JJ	.	16e/JJ	.	.	.	.	.	.	.	.	.	.	.	.	.	.
!LO:LB:g=original	!	!	!	!	!LO:LB:g=original	!	!	!	!LO:LB:g=original	!	!	!	!	!	!	!	!	!	!
=3	=3	=3	=3	=3	=3	=3	=3	=3	=3	=3	=3	=3	=3	=3	=3	=3	=3	=3	=3
8G#X\	6	.	16r	.	16r	.	.	.	8r	.	.	.	.	.	.	.	.	.	.
.	.	.	16B/LL	.	16e/LL	.	.	.	.	.	.	.	.	.	.	.	.	.	.
8r	.	.	16B/	.	16e/	.	.	.	8e\	tol-	.	.	.	.	.	.	.	.	.
.	.	.	16B/JJ	.	16e/JJ	.	.	.	.	.	.	.	.	.	.	.	.	.	.
8G#\	.	.	16r	.	16r	.	.	.	8e\	-lis	.	.	.	.	.	.	.	.	.
.	.	.	16B/LL	.	16e/LL	.	.	.	.	.	.	.	.	.	.	.	.	.	.
8r	.	.	16B/	.	16e/	.	.	.	8e\	pec-	.	.	.	.	.	.	.	.	.
.	.	.	16B/JJ	.	16e/JJ	.	.	.	.	.	.	.	.	.	.	.	.	.	.
8D\	4| 2	.	16r	.	16r	.	.	.	4G#X\	-ca-	.	.	.	.	.	.	.	.	.
.	.	.	16B/LL	.	16e/LL	.	.	.	.	.	.	.	.	.	.	.	.	.	.
8r	.	.	16B/	.	16e/	.	.	.	.	.	.	.	.	.	.	.	.	.	.
.	.	.	16B/JJ	.	16e/JJ	.	.	.	.	.	.	.	.	.	.	.	.	.	.
8C#/	.	.	16r	.	16r	.	.	.	4A\	-ta	.	.	.	.	.	.	.	.	.
.	.	.	16c#/LL	.	16e/LL	.	.	.	.	.	.	.	.	.	.	.	.	.	.
8r	.	.	16c#/	.	16e/	.	.	.	.	.	.	.	.	.	.	.	.	.	.
.	.	.	16c#/JJ	.	16e/JJ	.	.	.	.	.	.	.	.	.	.	.	.	.	.
=4	=4	=4	=4	=4	=4	=4	=4	=4	=4	=4	=4	=4	=4	=4	=4	=4	=4	=4	=4
8C#/	6	.	16r	.	16r	.	.	.	8r	.	.	.	.	.	.	.	.	.	.
.	.	.	16A/LL	.	16e/LL	.	.	.	.	.	.	.	.	.	.	.	.	.	.
8r	.	.	16A/	.	16e/	.	.	.	8e\	pec-	.	.	.	.	.	.	.	.	.
.	.	.	16A/JJ	.	16e/JJ	.	.	.	.	.	.	.	.	.	.	.	.	.	.
8C#/	.	.	16r	.	16r	.	.	.	8e\	-ca-	.	.	.	.	.	.	.	.	.
.	.	.	16A/LL	.	16e/LL	.	.	.	.	.	.	.	.	.	.	.	.	.	.
8r	.	.	16A/	.	16e/	.	.	.	8e\	-ta	.	.	.	.	.	.	.	.	.
.	.	.	16A/JJ	.	16e/JJ	.	.	.	.	.	.	.	.	.	.	.	.	.	.
.	.	.	.	.	.	.	.	.	8qqd/	.	.	.	.	.	.	.	.	.	.
8AA/	.	.	16r	.	16r	.	.	.	4c#\	mun-	.	.	.	.	.	.	.	.	.
!	!	!	!LO:SIC:v:s=16a/LL	!	!	!	!	!	!	!	!	!	!	!	!	!	!	!	!
.	.	.	16G#X/LL	.	16e/LL	.	.	.	.	.	.	.	.	.	.	.	.	.	.
!	!	!	!LO:SIC:v:s=16a/	!	!	!	!	!	!	!	!	!	!	!	!	!	!	!	!
8r	.	.	16G#/	.	16e/	.	.	.	.	.	.	.	.	.	.	.	.	.	.
!	!	!	!LO:SIC:v:s=16a/JJ	!	!	!	!	!	!	!	!	!	!	!	!	!	!	!	!
.	.	.	16G#/JJ	.	16e/JJ	.	.	.	.	.	.	.	.	.	.	.	.	.	.
8AA/	.	.	16r	.	16r	.	.	.	4c#\	-di	.	.	.	.	.	.	.	.	.
!	!	!	!LO:SIC:v:s=16a/LL	!	!	!	!	!	!	!	!	!	!	!	!	!	!	!	!
.	.	.	16G#/LL	.	16e/LL	.	.	.	.	.	.	.	.	.	.	.	.	.	.
!	!	!	!LO:SIC:v:s=16a/	!	!	!	!	!	!	!	!	!	!	!	!	!	!	!	!
8r	.	.	16G#/	.	16e/	.	.	.	.	.	.	.	.	.	.	.	.	.	.
!	!	!	!LO:SIC:v:s=16a/JJ	!	!	!	!	!	!	!	!	!	!	!	!	!	!	!	!
.	.	.	16G#/JJ	.	16e/JJ	.	.	.	.	.	.	.	.	.	.	.	.	.	.
!	!	!	!LO:LB:g=original	!	!	!	!	!	!	!	!	!	!	!	!	!	!	!	!
=5	=5	=5	=5	=5	=5	=5	=5	=5	=5	=5	=5	=5	=5	=5	=5	=5	=5	=5	=5
8C#/	6_	.	16r	.	16r	.	00r	.	4e\	mi-	00r	.	00r	.	.	00r	00r	00r	00r
.	.	.	16A/LL	.	16e/LL	.	.	.	.	.	.	.	.	.	.	.	.	.	.
8r	.	.	16A/	.	16e/	.	.	.	.	.	.	.	.	.	.	.	.	.	.
.	.	.	16A/JJ	.	16e/JJ	.	.	.	.	.	.	.	.	.	.	.	.	.	.
8C#/	.	.	16r	.	16r	.	.	.	8c#\	-se-	.	.	.	.	.	.	.	.	.
.	.	.	16A/LL	.	16e/LL	.	.	.	.	.	.	.	.	.	.	.	.	.	.
8r	.	.	16A/	.	16e/	.	.	.	8B\	.	.	.	.	.	.	.	.	.	.
.	.	.	16A/JJ	.	16e/JJ	.	.	.	.	.	.	.	.	.	.	.	.	.	.
8C#/	.	.	16r	.	16r	.	.	.	4A\	-re-	.	.	.	.	.	.	.	.	.
.	.	.	16A/LL	.	16e/LL	.	.	.	.	.	.	.	.	.	.	.	.	.	.
8r	.	.	16A/	.	16e/	.	.	.	.	.	.	.	.	.	.	.	.	.	.
.	.	.	16A/JJ	.	16e/JJ	.	.	.	.	.	.	.	.	.	.	.	.	.	.
8C#/	5n	.	16r	.	16r	.	.	.	4gn\	-re	.	.	.	.	.	.	.	.	.
.	.	.	16A/LL	.	16e/LL	.	.	.	.	.	.	.	.	.	.	.	.	.	.
8r	.	.	16A/	.	16e/	.	.	.	.	.	.	.	.	.	.	.	.	.	.
.	.	.	16A/JJ	.	16e/JJ	.	.	.	.	.	.	.	.	.	.	.	.	.	.
!	!	!	!	!	!LO:LB:g=original	!	!	!	!LO:LB:g=original	!	!	!	!	!	!	!	!	!	!
=6	=6	=6	=6	=6	=6	=6	=6	=6	=6	=6	=6	=6	=6	=6	=6	=6	=6	=6	=6
8D\	.	.	16r	.	16r	.	.	.	4f#\	mi-	.	.	.	.	.	.	.	.	.
.	.	.	16A/LL	.	16f#/LL	.	.	.	.	.	.	.	.	.	.	.	.	.	.
8r	.	.	16A/	.	16f#/	.	.	.	.	.	.	.	.	.	.	.	.	.	.
.	.	.	16A/JJ	.	16f#/JJ	.	.	.	.	.	.	.	.	.	.	.	.	.	.
8D\	.	.	16r	.	16r	.	.	.	4d\	-se-	.	.	.	.	.	.	.	.	.
.	.	.	16A/LL	.	16f#/LL	.	.	.	.	.	.	.	.	.	.	.	.	.	.
8r	.	.	16A/	.	16f#/	.	.	.	.	.	.	.	.	.	.	.	.	.	.
.	.	.	16A/JJ	.	16f#/JJ	.	.	.	.	.	.	.	.	.	.	.	.	.	.
!LO:LB:g=original	!	!	!	!	!	!	!	!	!	!	!	!	!	!	!	!	!	!	!
8F#\	6	.	16r	.	16r	.	.	.	4A\	-re-	.	.	.	.	.	.	.	.	.
.	.	.	16A/LL	.	16f#/LL	.	.	.	.	.	.	.	.	.	.	.	.	.	.
8r	.	.	16A/	.	16f#/	.	.	.	.	.	.	.	.	.	.	.	.	.	.
.	.	.	16A/JJ	.	16f#/JJ	.	.	.	.	.	.	.	.	.	.	.	.	.	.
8D\	.	.	16r	.	16r	.	.	.	4F#\	-re	.	.	.	.	.	.	.	.	.
.	.	.	16A/LL	.	16f#/LL	.	.	.	.	.	.	.	.	.	.	.	.	.	.
8r	.	.	16A/	.	16f#/	.	.	.	.	.	.	.	.	.	.	.	.	.	.
.	.	.	16A/JJ	.	16f#/JJ	.	.	.	.	.	.	.	.	.	.	.	.	.	.
=7	=7	=7	=7	=7	=7	=7	=7	=7	=7	=7	=7	=7	=7	=7	=7	=7	=7	=7	=7
8D\	.	.	16r	.	16r	.	.	.	4f#\	no-	.	.	.	.	.	.	.	.	.
.	.	.	16A/LL	.	16f#/LL	.	.	.	.	.	.	.	.	.	.	.	.	.	.
8r	.	.	16A/	.	16f#/	.	.	.	.	.	.	.	.	.	.	.	.	.	.
.	.	.	16A/JJ	.	16f#/JJ	.	.	.	.	.	.	.	.	.	.	.	.	.	.
8C#/	6 5	.	16r	.	16r	.	.	.	4e\	.	.	.	.	.	.	.	.	.	.
.	.	.	16A/LL	.	16g/LL	.	.	.	.	.	.	.	.	.	.	.	.	.	.
8r	.	.	16A/	.	16g/	.	.	.	.	.	.	.	.	.	.	.	.	.	.
.	.	.	16A/JJ	.	16g/JJ	.	.	.	.	.	.	.	.	.	.	.	.	.	.
!	!	!	!LO:LB:g=original	!	!	!	!	!	!	!	!	!	!	!	!	!	!	!	!
8A\	6 4	.	16r	.	16r	.	.	.	4d\	.	.	.	.	.	.	.	.	.	.
.	.	.	16A/LL	.	16f#/LL	.	.	.	.	.	.	.	.	.	.	.	.	.	.
8r	.	.	16A/	.	16f#/	.	.	.	.	.	.	.	.	.	.	.	.	.	.
.	.	.	16A/JJ	.	16f#/JJ	.	.	.	.	.	.	.	.	.	.	.	.	.	.
8AA/	5 3	.	16r	.	16r	.	.	.	4c#\	.	.	.	.	.	.	.	.	.	.
.	.	.	16A/LL	.	16e/LL	.	.	.	.	.	.	.	.	.	.	.	.	.	.
8r	.	.	16A/	.	16e/	.	.	.	.	.	.	.	.	.	.	.	.	.	.
.	.	.	16A/JJ	.	16e/JJ	.	.	.	.	.	.	.	.	.	.	.	.	.	.
=8	=8	=8	=8	=8	=8	=8	=8	=8	=8	=8	=8	=8	=8	=8	=8	=8	=8	=8	=8
!	!	!LO:DY:t=for	!	!	!	!LO:DY:t=for	!	!	!	!	!	!	!	!	!	!	!	!	!
8D\	.	f	16r	.	16r	f	.	.	4d\	-bis:	.	.	.	.	.	.	.	.	.
!	!	!	!	!LO:DY:t=for	!	!	!	!	!	!	!	!	!	!	!	!	!	!	!
.	.	.	16f#/LL	f	16a\LL	.	.	.	.	.	.	.	.	.	.	.	.	.	.
8r	.	.	16f#/	.	16a\	.	.	.	.	.	.	.	.	.	.	.	.	.	.
.	.	.	16f#/JJ	.	16a\JJ	.	.	.	.	.	.	.	.	.	.	.	.	.	.
8G\	6	.	16r	.	16r	.	.	.	4r	.	.	.	.	.	.	.	.	.	.
.	.	.	16gn/LL	.	16b\LL	.	.	.	.	.	.	.	.	.	.	.	.	.	.
8r	.	.	16g/	.	16b\	.	.	.	.	.	.	.	.	.	.	.	.	.	.
.	.	.	16g/JJ	.	16b\JJ	.	.	.	.	.	.	.	.	.	.	.	.	.	.
8A\	#	.	16r	.	16r	.	.	.	2r	.	.	.	.	.	.	.	.	.	.
.	.	.	16g/LL	.	16cc#\LL	.	.	.	.	.	.	.	.	.	.	.	.	.	.
8r	.	.	16g/	.	16cc#\	.	.	.	.	.	.	.	.	.	.	.	.	.	.
.	.	.	16g/JJ	.	16cc#\JJ	.	.	.	.	.	.	.	.	.	.	.	.	.	.
8D\	.	.	4f#/	.	4dd\	.	.	.	.	.	.	.	.	.	.	.	.	.	.
8r	.	.	.	.	.	.	.	.	.	.	.	.	.	.	.	.	.	.	.
!	!	!	!	!	!LO:LB:g=original	!	!	!	!	!	!	!	!	!	!	!	!	!	!
=9	=9	=9	=9	=9	=9	=9	=9	=9	=9	=9	=9	=9	=9	=9	=9	=9	=9	=9	=9
!	!	!LO:DY:t=pia.	!	!	!	!LO:DY:t=pia	!	!	!	!	!	!	!	!	!	!	!	!	!
8D\	.	p	16r	.	16r	p	00r	.	00r	.	4a\	Ag-	0r	.	.	00r	00r	00r	00r
!	!	!	!	!LO:DY:t=po.	!	!	!	!	!	!	!	!	!	!	!	!	!	!	!
.	.	.	16f#/LL	p	16a\LL	.	.	.	.	.	.	.	.	.	.	.	.	.	.
8r	.	.	16f#/	.	16a\	.	.	.	.	.	.	.	.	.	.	.	.	.	.
.	.	.	16f#/JJ	.	16a\JJ	.	.	.	.	.	.	.	.	.	.	.	.	.	.
8D\	.	.	16r	.	16r	.	.	.	.	.	(16g\LL	.	.	.	.	.	.	.	.
.	.	.	16f#/LL	.	16a\LL	.	.	.	.	.	16f#\JJ)	.	.	.	.	.	.	.	.
8r	.	.	16f#/	.	16a\	.	.	.	.	.	(16e\LL	-nus	.	.	.	.	.	.	.
.	.	.	16f#/JJ	.	16a\JJ	.	.	.	.	.	16d\JJ)	.	.	.	.	.	.	.	.
8E\	6	.	16r	.	16r	.	.	.	.	.	(16d\LL	De-	.	.	.	.	.	.	.
.	.	.	16g/LL	.	16a\LL	.	.	.	.	.	16c#\JJ)	.	.	.	.	.	.	.	.
8r	.	.	16g/	.	16a\	.	.	.	.	.	8c#\	-i	.	.	.	.	.	.	.
.	.	.	16g/JJ	.	16a\JJ	.	.	.	.	.	.	.	.	.	.	.	.	.	.
!	!	!	!	!	!	!	!	!	!	!	!LO:N:vis=8	!	!	!	!	!	!	!	!
8E\	.	.	16r	.	16r	.	.	.	.	.	4r	.	.	.	.	.	.	.	.
.	.	.	16g/LL	.	16a\LL	.	.	.	.	.	.	.	.	.	.	.	.	.	.
8r	.	.	16g/	.	16a\	.	.	.	.	.	.	.	.	.	.	.	.	.	.
.	.	.	16g/JJ	.	16a\JJ	.	.	.	.	.	.	.	.	.	.	.	.	.	.
!LO:LB:g=original	!	!	!LO:LB:g=original	!	!	!	!	!	!	!	!	!	!	!	!	!	!	!	!
=10	=10	=10	=10	=10	=10	=10	=10	=10	=10	=10	=10	=10	=10	=10	=10	=10	=10	=10	=10
8C#/	.	.	16r	.	16r	.	.	.	.	.	8r	.	.	.	.	.	.	.	.
.	.	.	16e/LL	.	16a\LL	.	.	.	.	.	.	.	.	.	.	.	.	.	.
8r	.	.	16e/	.	16a\	.	.	.	.	.	8e\	qui	.	.	.	.	.	.	.
.	.	.	16e/JJ	.	16a\JJ	.	.	.	.	.	.	.	.	.	.	.	.	.	.
8C#/	.	.	16r	.	16r	.	.	.	.	.	8e\	tol-	.	.	.	.	.	.	.
.	.	.	16e/LL	.	16a\LL	.	.	.	.	.	.	.	.	.	.	.	.	.	.
8r	.	.	16e/	.	16a\	.	.	.	.	.	16f#\	-lis	.	.	.	.	.	.	.
.	.	.	16e/JJ	.	16a\JJ	.	.	.	.	.	16g\	pec-	.	.	.	.	.	.	.
8D\	.	.	16r	.	16r	.	.	.	.	.	16g\LL	-ca-	.	.	.	.	.	.	.
.	.	.	16f#/LL	.	16a\LL	.	.	.	.	.	16f#\JJ	.	.	.	.	.	.	.	.
8r	.	.	16f#/	.	16a\	.	.	.	.	.	8f#\	-ta	.	.	.	.	.	.	.
.	.	.	16f#/JJ	.	16a\JJ	.	.	.	.	.	.	.	.	.	.	.	.	.	.
8D\	.	.	16r	.	16r	.	.	.	.	.	4r	.	.	.	.	.	.	.	.
.	.	.	16f#/LL	.	16a\LL	.	.	.	.	.	.	.	.	.	.	.	.	.	.
8r	.	.	16f#/	.	16a\	.	.	.	.	.	.	.	.	.	.	.	.	.	.
.	.	.	16f#/JJ	.	16a\JJ	.	.	.	.	.	.	.	.	.	.	.	.	.	.
!	!	!	!	!	!	!	!	!	!	!	!LO:LB:g=original	!	!	!	!	!	!	!	!
=11	=11	=11	=11	=11	=11	=11	=11	=11	=11	=11	=11	=11	=11	=11	=11	=11	=11	=11	=11
!	!	!	!	!	!	!	!	!	!	!	!LO:N:vis=00	!	!	!	!	!	!	!	!
8D\	.	.	16r	.	16r	.	.	.	.	.	1r	.	4a\	Tol-	.	.	.	.	.
.	.	.	16f#/LL	.	16a\LL	.	.	.	.	.	.	.	.	.	.	.	.	.	.
8r	.	.	16f#/	.	16a\	.	.	.	.	.	.	.	.	.	.	.	.	.	.
.	.	.	16f#/JJ	.	16a\JJ	.	.	.	.	.	.	.	.	.	.	.	.	.	.
8D\	.	.	16r	.	16r	.	.	.	.	.	.	.	8a\	-lis	.	.	.	.	.
.	.	.	16f#/LL	.	16a\LL	.	.	.	.	.	.	.	.	.	.	.	.	.	.
8r	.	.	16f#/	.	16a\	.	.	.	.	.	.	.	8a\	pec-	.	.	.	.	.
.	.	.	16f#/JJ	.	16a\JJ	.	.	.	.	.	.	.	.	.	.	.	.	.	.
8D\	.	.	16r	.	16r	.	.	.	.	.	.	.	4dd\	-ca-	.	.	.	.	.
.	.	.	16f#/LL	.	16a\LL	.	.	.	.	.	.	.	.	.	.	.	.	.	.
8r	.	.	16f#/	.	16a\	.	.	.	.	.	.	.	.	.	.	.	.	.	.
.	.	.	16f#/JJ	.	16a\JJ	.	.	.	.	.	.	.	.	.	.	.	.	.	.
8D\	.	.	16r	.	16r	.	.	.	.	.	.	.	4a\	-ta	.	.	.	.	.
.	.	.	16f#/LL	.	16a\LL	.	.	.	.	.	.	.	.	.	.	.	.	.	.
8r	.	.	16f#/	.	16a\	.	.	.	.	.	.	.	.	.	.	.	.	.	.
.	.	.	16f#/JJ	.	16a\JJ	.	.	.	.	.	.	.	.	.	.	.	.	.	.
!	!	!	!	!	!LO:LB:g=original	!	!	!	!	!	!	!	!	!	!	!	!	!	!
=12	=12	=12	=12	=12	=12	=12	=12	=12	=12	=12	=12	=12	=12	=12	=12	=12	=12	=12	=12
!LO:TX:t=P:problem=brak tt.12-14	!	!	!LO:TX:t=P:problem=zbędne takty 12-14	!	!LO:TX:t=P:problem=brak tt.12-14	!	!LO:TX:t=P:problem=brak tt.12-14	!	!LO:TX:t=P:problem=brak tt.12-14	!	!LO:TX:t=P:problem=brak tt.12-14	!	!LO:TX:t=P:problem=brak tt.12-14	!	!	!LO:TX:t=P:problem=brak tt.12-14	!LO:TX:t=P:problem=brak tt.12-14	!LO:TX:t=P:problem=brak tt.12-14	!LO:TX:t=P:problem=brak tt.12-14
1ryy	.	.	16r	.	1ryy	.	.	.	.	.	1ryy	.	1ryy	.	.	.	.	.	.
!	!	!	!	!LO:DY:t=po.	!	!	!	!	!	!	!	!	!	!	!	!	!	!	!
.	.	.	16f#/LL	p	.	.	.	.	.	.	.	.	.	.	.	.	.	.	.
.	.	.	16f#/	.	.	.	.	.	.	.	.	.	.	.	.	.	.	.	.
.	.	.	16f#/JJ	.	.	.	.	.	.	.	.	.	.	.	.	.	.	.	.
.	.	.	16r	.	.	.	.	.	.	.	.	.	.	.	.	.	.	.	.
.	.	.	16f#/LL	.	.	.	.	.	.	.	.	.	.	.	.	.	.	.	.
.	.	.	16f#/	.	.	.	.	.	.	.	.	.	.	.	.	.	.	.	.
.	.	.	16f#/JJ	.	.	.	.	.	.	.	.	.	.	.	.	.	.	.	.
!	!	!	!LO:LB:g=original	!	!	!	!	!	!	!	!	!	!	!	!	!	!	!	!
.	.	.	16r	.	.	.	.	.	.	.	.	.	.	.	.	.	.	.	.
.	.	.	16g/LL	.	.	.	.	.	.	.	.	.	.	.	.	.	.	.	.
.	.	.	16g/	.	.	.	.	.	.	.	.	.	.	.	.	.	.	.	.
.	.	.	16g/JJ	.	.	.	.	.	.	.	.	.	.	.	.	.	.	.	.
.	.	.	16r	.	.	.	.	.	.	.	.	.	.	.	.	.	.	.	.
.	.	.	16g/LL	.	.	.	.	.	.	.	.	.	.	.	.	.	.	.	.
.	.	.	16g/	.	.	.	.	.	.	.	.	.	.	.	.	.	.	.	.
.	.	.	16g/JJ	.	.	.	.	.	.	.	.	.	.	.	.	.	.	.	.
=13	=13	=13	=13	=13	=13	=13	=13	=13	=13	=13	=13	=13	=13	=13	=13	=13	=13	=13	=13
1ryy	.	.	16r	.	1ryy	.	1ryy	.	1ryy	.	1ryy	.	1ryy	.	.	1ryy	1ryy	1ryy	1ryy
.	.	.	16e/LL	.	.	.	.	.	.	.	.	.	.	.	.	.	.	.	.
.	.	.	16e/	.	.	.	.	.	.	.	.	.	.	.	.	.	.	.	.
.	.	.	16e/JJ	.	.	.	.	.	.	.	.	.	.	.	.	.	.	.	.
.	.	.	16r	.	.	.	.	.	.	.	.	.	.	.	.	.	.	.	.
.	.	.	16e/LL	.	.	.	.	.	.	.	.	.	.	.	.	.	.	.	.
.	.	.	16e/	.	.	.	.	.	.	.	.	.	.	.	.	.	.	.	.
.	.	.	16e/JJ	.	.	.	.	.	.	.	.	.	.	.	.	.	.	.	.
.	.	.	16r	.	.	.	.	.	.	.	.	.	.	.	.	.	.	.	.
.	.	.	16f#/LL	.	.	.	.	.	.	.	.	.	.	.	.	.	.	.	.
.	.	.	16f#/	.	.	.	.	.	.	.	.	.	.	.	.	.	.	.	.
.	.	.	16f#/JJ	.	.	.	.	.	.	.	.	.	.	.	.	.	.	.	.
.	.	.	16r	.	.	.	.	.	.	.	.	.	.	.	.	.	.	.	.
.	.	.	16f#/LL	.	.	.	.	.	.	.	.	.	.	.	.	.	.	.	.
.	.	.	16f#/	.	.	.	.	.	.	.	.	.	.	.	.	.	.	.	.
.	.	.	16f#/JJ	.	.	.	.	.	.	.	.	.	.	.	.	.	.	.	.
=14	=14	=14	=14	=14	=14	=14	=14	=14	=14	=14	=14	=14	=14	=14	=14	=14	=14	=14	=14
1ryy	.	.	16r	.	1ryy	.	1ryy	.	1ryy	.	1ryy	.	1ryy	.	.	1ryy	1ryy	1ryy	1ryy
.	.	.	16f#/LL	.	.	.	.	.	.	.	.	.	.	.	.	.	.	.	.
.	.	.	16f#/	.	.	.	.	.	.	.	.	.	.	.	.	.	.	.	.
.	.	.	16f#/JJ	.	.	.	.	.	.	.	.	.	.	.	.	.	.	.	.
.	.	.	16r	.	.	.	.	.	.	.	.	.	.	.	.	.	.	.	.
.	.	.	16f#/LL	.	.	.	.	.	.	.	.	.	.	.	.	.	.	.	.
.	.	.	16f#/	.	.	.	.	.	.	.	.	.	.	.	.	.	.	.	.
.	.	.	16f#/JJ	.	.	.	.	.	.	.	.	.	.	.	.	.	.	.	.
.	.	.	16r	.	.	.	.	.	.	.	.	.	.	.	.	.	.	.	.
.	.	.	16f#/LL	.	.	.	.	.	.	.	.	.	.	.	.	.	.	.	.
.	.	.	16f#/	.	.	.	.	.	.	.	.	.	.	.	.	.	.	.	.
.	.	.	16f#/JJ	.	.	.	.	.	.	.	.	.	.	.	.	.	.	.	.
.	.	.	16r	.	.	.	.	.	.	.	.	.	.	.	.	.	.	.	.
.	.	.	16f#/LL	.	.	.	.	.	.	.	.	.	.	.	.	.	.	.	.
.	.	.	16f#/	.	.	.	.	.	.	.	.	.	.	.	.	.	.	.	.
.	.	.	16f#/JJ	.	.	.	.	.	.	.	.	.	.	.	.	.	.	.	.
!	!	!	!LO:LB:g=original	!	!	!	!	!	!	!	!	!	!	!	!	!	!	!	!
=15	=15	=15	=15	=15	=15	=15	=15	=15	=15	=15	=15	=15	=15	=15	=15	=15	=15	=15	=15
8C#/	6_ 5_	.	16r	.	16r	.	1ryy	.	1ryy	.	1ryy	.	8r	.	.	1ryy	1ryy	1ryy	1ryy
.	.	.	16g/LL	.	16a\LL	.	.	.	.	.	.	.	.	.	.	.	.	.	.
8r	.	.	16g/	.	16a\	.	.	.	.	.	.	.	8a\	pec-	.	.	.	.	.
.	.	.	16g/JJ	.	16a\JJ	.	.	.	.	.	.	.	.	.	.	.	.	.	.
8C#/	.	.	16r	.	16r	.	.	.	.	.	.	.	8a\	-ca-	.	.	.	.	.
.	.	.	16g/LL	.	16a\LL	.	.	.	.	.	.	.	.	.	.	.	.	.	.
8r	x	.	16g/	.	16a\	.	.	.	.	.	.	.	8a\	-ta	.	.	.	.	.
.	.	.	16g/JJ	.	16a\JJ	.	.	.	.	.	.	.	.	.	.	.	.	.	.
8C#/	.	.	16r	.	16r	.	.	.	.	.	.	.	4ee\	Mun-	.	.	.	.	.
.	.	.	16g/LL	.	16a\LL	.	.	.	.	.	.	.	.	.	.	.	.	.	.
8r	.	.	16g/	.	16a\	.	.	.	.	.	.	.	.	.	.	.	.	.	.
.	.	.	16g/JJ	.	16a\JJ	.	.	.	.	.	.	.	.	.	.	.	.	.	.
8C#/	.	.	16r	.	16r	.	.	.	.	.	.	.	4a\	-di	.	.	.	.	.
.	.	.	16g/LL	.	16a\LL	.	.	.	.	.	.	.	.	.	.	.	.	.	.
8r	.	.	16g/	.	16a\	.	.	.	.	.	.	.	.	.	.	.	.	.	.
.	.	.	16g/JJ	.	16a\JJ	.	.	.	.	.	.	.	.	.	.	.	.	.	.
!	!	!	!	!	!	!	!	!	!	!	!	!	!LO:LB:g=original	!	!	!	!	!	!
=16	=16	=16	=16	=16	=16	=16	=16	=16	=16	=16	=16	=16	=16	=16	=16	=16	=16	=16	=16
8AA/	7	.	16r	.	16r	.	0r	.	0r	.	1ryy	.	4gg\	mi-	.	0r	0r	0r	0r
.	.	.	16e/LL	.	16a\LL	.	.	.	.	.	.	.	.	.	.	.	.	.	.
8r	.	.	16e/	.	16a\	.	.	.	.	.	.	.	.	.	.	.	.	.	.
.	.	.	16e/JJ	.	16a\JJ	.	.	.	.	.	.	.	.	.	.	.	.	.	.
8D\	.	.	16r	.	16r	.	.	.	.	.	.	.	4ff#\	-ſe-	.	.	.	.	.
.	.	.	16d/LL	.	16a\LL	.	.	.	.	.	.	.	.	.	.	.	.	.	.
8r	.	.	16d/	.	16a\	.	.	.	.	.	.	.	.	.	.	.	.	.	.
.	.	.	16d/JJ	.	16a\JJ	.	.	.	.	.	.	.	.	.	.	.	.	.	.
8AA/	7	.	16r	.	16r	.	.	.	.	.	.	.	4ee\	-re-	.	.	.	.	.
.	.	.	16g/LL	.	16a\LL	.	.	.	.	.	.	.	.	.	.	.	.	.	.
8r	.	.	16g/	.	16a\	.	.	.	.	.	.	.	.	.	.	.	.	.	.
.	.	.	16g/JJ	.	16a\JJ	.	.	.	.	.	.	.	.	.	.	.	.	.	.
8D\	.	.	16r	.	16r	.	.	.	.	.	.	.	4dd\	-re	.	.	.	.	.
.	.	.	16f#/LL	.	16a\LL	.	.	.	.	.	.	.	.	.	.	.	.	.	.
8r	.	.	16f#/	.	16a\	.	.	.	.	.	.	.	.	.	.	.	.	.	.
.	.	.	16f#/JJ	.	16a\JJ	.	.	.	.	.	.	.	.	.	.	.	.	.	.
!LO:LB:g=original	!	!	!	!	!	!	!	!	!	!	!	!	!	!	!	!	!	!	!
=17	=17	=17	=17	=17	=17	=17	=17	=17	=17	=17	=17	=17	=17	=17	=17	=17	=17	=17	=17
8A\	.	.	16r	.	16r	.	.	.	.	.	1ryy	.	4cc#\	no-	.	.	.	.	.
.	.	.	16f#/LL	.	16a\LL	.	.	.	.	.	.	.	.	.	.	.	.	.	.
8r	.	.	16f#/	.	16a\	.	.	.	.	.	.	.	.	.	.	.	.	.	.
.	.	.	16f#/JJ	.	16a\JJ	.	.	.	.	.	.	.	.	.	.	.	.	.	.
*	*	*	*	*	*	*	*	*	*	*	*	*	*2\right	*	*	*	*	*	*
8D\	.	.	16r	.	16r	.	.	.	.	.	.	.	2dd\	.	.	.	.	.	.
.	.	.	16f#/LL	.	16a\LL	.	.	.	.	.	.	.	.	.	.	.	.	.	.
8r	.	.	16f#/	.	16a\	.	.	.	.	.	.	.	.	.	.	.	.	.	.
.	.	.	16f#/JJ	.	16a\JJ	.	.	.	.	.	.	.	.	.	.	.	.	.	.
!	!	!	!LO:LB:g=original	!	!LO:LB:g=original	!	!	!	!	!	!	!	!	!	!	!	!	!	!
8A\	6 4	.	16r	.	16r	.	.	.	.	.	.	.	.	.	.	.	.	.	.
.	.	.	16f#/LL	.	16a\LL	.	.	.	.	.	.	.	.	.	.	.	.	.	.
8r	.	.	16f#/	.	16a\	.	.	.	.	.	.	.	.	.	.	.	.	.	.
.	.	.	16f#/JJ	.	16a\JJ	.	.	.	.	.	.	.	.	.	.	.	.	.	.
8AA/	5 3	.	16r	.	16r	.	.	.	.	.	.	.	4cc#\	.	.	.	.	.	.
.	.	.	16e/LL	.	16a\LL	.	.	.	.	.	.	.	.	.	.	.	.	.	.
8r	.	.	16e/	.	16a\	.	.	.	.	.	.	.	.	.	.	.	.	.	.
.	.	.	16e/JJ	.	16a\JJ	.	.	.	.	.	.	.	.	.	.	.	.	.	.
=18	=18	=18	=18	=18	=18	=18	=18	=18	=18	=18	=18	=18	=18	=18	=18	=18	=18	=18	=18
!	!	!LO:DY:t=for	!	!	!	!	!	!	!LO:TX:a:i:t=Tutti	!	!	!	!	!	!	!	!	!	!
8D\	.	f	16r	.	16r	.	1r	.	1r	.	1r	.	4dd\	-bis	.	1r	1r	1r	1r
.	.	.	16f#/LL	.	16a\LL	.	.	.	.	.	.	.	.	.	.	.	.	.	.
8r	.	.	16f#/	.	16a\	.	.	.	.	.	.	.	.	.	.	.	.	.	.
.	.	.	16f#/JJ	.	16a\JJ	.	.	.	.	.	.	.	.	.	.	.	.	.	.
8G\	6	.	16r	.	16r	.	.	.	.	.	.	.	4r	.	.	.	.	.	.
.	.	.	16g/LL	.	16b\LL	.	.	.	.	.	.	.	.	.	.	.	.	.	.
8r	.	.	16g/	.	16b\	.	.	.	.	.	.	.	.	.	.	.	.	.	.
.	.	.	16g/JJ	.	16b\JJ	.	.	.	.	.	.	.	.	.	.	.	.	.	.
8A\	.	.	16r	.	16r	.	.	.	.	.	.	.	2r	.	.	.	.	.	.
.	.	.	16e/LL	.	16cc#\LL	.	.	.	.	.	.	.	.	.	.	.	.	.	.
8r	.	.	16e/	.	16cc#\	.	.	.	.	.	.	.	.	.	.	.	.	.	.
.	.	.	16e/JJ	.	16cc#\JJ	.	.	.	.	.	.	.	.	.	.	.	.	.	.
8D\	.	.	4f#/	.	4dd\	.	.	.	.	.	.	.	.	.	.	.	.	.	.
8r	.	.	.	.	.	.	.	.	.	.	.	.	.	.	.	.	.	.	.
!	!	!	!	!	!	!	!	!	!LO:PB:g=original	!	!	!	!	!	!	!	!	!	!
=19	=19	=19	=19	=19	=19	=19	=19	=19	=19	=19	=19	=19	=19	=19	=19	=19	=19	=19	=19
!LO:TX:a:i:t=Tutti	!	!	!	!LO:DY:t=for	!LO:TX:t=P:problem=mixed beam	!LO:DY:t=for	!	!	!	!	!	!	!LO:TX:a:i:t=Tutti	!	!	!	!	!	!
8D\L	.	.	16.dd\LL	f	16.dd\LL	f	4.D\	A-	4A\	A-	4.f#\	A-	4.dd\	A-	.	4f#/	4dd\	4dd\	4ff#\
.	.	.	32d/K	.	32d/K	.	.	.	.	.	.	.	.	.	.	.	.	.	.
8D\	.	.	16.f#/	.	16.f#/	.	.	.	.	.	.	.	.	.	.	.	.	.	.
.	.	.	32a/JJk	.	32a/JJk	.	.	.	.	.	.	.	.	.	.	.	.	.	.
8D\	.	.	16.dd\LL	.	16.dd\LL	.	.	.	4A\	-gnus	.	.	.	.	.	8r	8r	4dd\	4ff#\
.	.	.	32ff#\K	.	32ff#\K	.	.	.	.	.	.	.	.	.	.	.	.	.	.
8D\J	.	.	16.aa\	.	16.aa\	.	8D\	-gnus	.	.	8f#\	-gnus	8dd\	-gnus	.	8f#/	8dd\	.	.
.	.	.	32ddd\JJk	.	32ddd\JJk	.	.	.	.	.	.	.	.	.	.	.	.	.	.
8E\L	6_ 4_	.	16.ccc#\LL	.	16.ccc#\LL	.	4E\	De-	4A\	De-	8f#\L	De-	8dd\L	De-	.	4a/	4ee\	4cc#\	4ee\
.	.	.	32aa\K	.	32aa\K	.	.	.	.	.	.	.	.	.	.	.	.	.	.
8E\	.	.	16.ee\	.	16.ee\	.	.	.	.	.	8g\J	.	8cc#\J	.	.	.	.	.	.
.	.	.	32cc#\JJk	.	32cc#\JJk	.	.	.	.	.	.	.	.	.	.	.	.	.	.
8E\	.	.	16a/LL	.	4a\	.	4E\	-i	4A\	-i	4g\	-i	4cc#\	-i	.	8r	8r	4cc#\	4ee\
.	.	.	16A/	.	.	.	.	.	.	.	.	.	.	.	.	.	.	.	.
8E\J	.	.	16.c#/	.	.	.	.	.	.	.	.	.	.	.	.	8a/	8ee\	.	.
.	.	.	32e/JJk	.	.	.	.	.	.	.	.	.	.	.	.	.	.	.	.
!	!	!	!LO:LB:g=original	!	!LO:LB:g=original	!	!	!	!	!	!	!	!	!	!	!	!	!	!
=20	=20	=20	=20	=20	=20	=20	=20	=20	=20	=20	=20	=20	=20	=20	=20	=20	=20	=20	=20
*tremolo	*	*	*	*	*	*	*	*	*	*	*	*	*	*	*	*	*	*	*
*2\right	*	*	*	*	*	*	*	*	*	*	*	*	*	*	*	*	*	*	*
8C#\L	6	.	4a\	.	16.a/LL	.	4C#/	De-	4A\	De-	4a\	De-	4ee\	De-	.	4a/	4ee\	4ee\	4gg\
.	.	.	.	.	32A/K	.	.	.	.	.	.	.	.	.	.	.	.	.	.
8C#\	.	.	.	.	16.c#/	.	.	.	.	.	.	.	.	.	.	.	.	.	.
.	.	.	.	.	32e/JJk	.	.	.	.	.	.	.	.	.	.	.	.	.	.
8C#\	5	.	16.a\LL	.	16.a\LL	.	8C#/	-i	8A\	-i	8a\	-i	8ee\	-i	.	8r	8r	4ee\	4gg\
.	.	.	32cc#\K	.	32cc#\K	.	.	.	.	.	.	.	.	.	.	.	.	.	.
8C#\J	.	.	16.ee\	.	16.ee\	.	8C#/	qui	8A\	qui	8a\	qui	8ee\	qui	.	8a/	8ee\	.	.
.	.	.	32gg\JJk	.	32gg\JJk	.	.	.	.	.	.	.	.	.	.	.	.	.	.
8D\L	.	.	16.ff#\LL	.	16.ff#\LL	.	4D\	tol-	8A/L	tol-	4a\	tol-	8ee\L	tol-	.	4f#/	4dd\	4dd\	4ff#\
.	.	.	32dd\K	.	32dd\K	.	.	.	.	.	.	.	.	.	.	.	.	.	.
8D\	.	.	16.a\	.	16.a\	.	.	.	8F#/J	.	.	.	8dd\J	.	.	.	.	.	.
.	.	.	32f#\JJk	.	32f#\JJk	.	.	.	.	.	.	.	.	.	.	.	.	.	.
8D\	.	.	16.dd\LL	.	4d/	.	4D\	-lis	4F#/	-lis	4a\	-lis	4dd\	-lis	.	8r	8r	4dd\	4ff#\
.	.	.	32d/K	.	.	.	.	.	.	.	.	.	.	.	.	.	.	.	.
8D\J	.	.	16.f#/	.	.	.	.	.	.	.	.	.	.	.	.	8f#/	8dd\	.	.
.	.	.	32a/JJk	.	.	.	.	.	.	.	.	.	.	.	.	.	.	.	.
!LO:LB:g=original	!	!	!	!	!	!	!	!	!	!	!	!	!LO:LB:g=original	!	!	!	!LO:LB:g=original	!	!
=21	=21	=21	=21	=21	=21	=21	=21	=21	=21	=21	=21	=21	=21	=21	=21	=21	=21	=21	=21
*	*	*	*	*	*	*	*	*	*	*	*	*	*	*	*	*	*	*2\right	*2\right
8F#\L	6	.	4dd\	.	16.d/LL	.	8r	.	4f#\	pec-	4a\	pec-	4dd\	pec-	.	4f#/	4dd\	2ff#\	2aa\
.	.	.	.	.	32f#/K	.	.	.	.	.	.	.	.	.	.	.	.	.	.
8F#\	.	.	.	.	16.a/	.	8F#\	pec-	.	.	.	.	.	.	.	.	.	.	.
.	.	.	.	.	32dd/JJk	.	.	.	.	.	.	.	.	.	.	.	.	.	.
8F#\	5n	.	16.aa\LL	.	16.aa\LL	.	8F#\	-ca-	8f#\	-ca-	8a\	-ca-	8dd\	-ca-	.	8r	8r	.	.
.	.	.	32ff#\K	.	32ff#\K	.	.	.	.	.	.	.	.	.	.	.	.	.	.
8F#\J	.	.	16.dd\	.	16.dd\	.	8F#\	-ta	8f#\	-ta	8a\	-ta	8ccn\	-ta	.	8f#/	8dd\	.	.
.	.	.	32ccn\JJk	.	32ccn\JJk	.	.	.	.	.	.	.	.	.	.	.	.	.	.
!	!	!	!	!	!	!	!	!	!	!	!	!	!	!	!	!	!	!LO:SIC:v:s=4gg t=albo 4dd	!
8G\L	.	.	16.b\LL	.	16.b\LL	.	4G\	mun-	4d\	mun-	4g\	mun-	8cc\L	Mun-	.	4d/	4dd\	4ee\	4gg\
.	.	.	32g\K	.	32g\K	.	.	.	.	.	.	.	.	.	.	.	.	.	.
8G\	.	.	16.b\	.	16.b\	.	.	.	.	.	.	.	8b\J	.	.	.	.	.	.
.	.	.	32dd\JJk	.	32dd\JJk	.	.	.	.	.	.	.	.	.	.	.	.	.	.
8G\	.	.	16.gg\LL	.	4gg\	.	4G\	-di	4d\	-di	4g\	-di	4b\	-di	.	4r	4r	4r	4r
.	.	.	32dd\K	.	.	.	.	.	.	.	.	.	.	.	.	.	.	.	.
8G\J	.	.	16.b\	.	.	.	.	.	.	.	.	.	.	.	.	.	.	.	.
.	.	.	32g\JJk	.	.	.	.	.	.	.	.	.	.	.	.	.	.	.	.
!	!	!	!	!	!	!	!LO:LB:g=original	!	!LO:LB:g=original	!	!LO:LB:g=original	!	!	!	!	!LO:LB:g=original	!	!LO:LB:g=original	!LO:LB:g=original
=22	=22	=22	=22	=22	=22	=22	=22	=22	=22	=22	=22	=22	=22	=22	=22	=22	=22	=22	=22
!	!	!	!	!	!	!	!	!	!	!	!	!	!	!	!	!	!	!LO:SIC:v:s=2gg#	!
8G#X\L	6 5	.	4ee\	.	16.e/LL	.	8r	.	4B\	pec-	4b\	pec-	4ee\	pec-	.	4ee\	4ee\	2gg\	2bb\
.	.	.	.	.	32g#X/K	.	.	.	.	.	.	.	.	.	.	.	.	.	.
8G#\	.	.	.	.	16.b/	.	8G#X\	pec-	.	.	.	.	.	.	.	.	.	.	.
.	.	.	.	.	32ee/JJk	.	.	.	.	.	.	.	.	.	.	.	.	.	.
8G#\	.	.	16.bb\LL	.	16.bb\LL	.	8G#\	-ca-	8B\	-ca-	8b\	-ca-	8ee\	-ca-	.	8r	8r	.	.
.	.	.	32gg#X\K	.	32gg#X\K	.	.	.	.	.	.	.	.	.	.	.	.	.	.
8G#\J	.	.	16.ee\	.	16.ee\	.	8G#\	-ta	8B\	-ta	8b\	-ta	8dd\	-ta	.	8ee\	8ee\	.	.
.	.	.	32dd\JJk	.	32dd\JJk	.	.	.	.	.	.	.	.	.	.	.	.	.	.
!	!	!	!	!	!LO:LB:g=original	!	!	!	!	!	!	!	!	!	!	!	!LO:SIC:v:s=4dd	!LO:SIC:v:s=4aa t=lub4ee	!
.	.	.	8qqdd/	.	.	.	.	.	.	.	.	.	.	.	.	.	.	.	.
8A\L	1	.	4cc#\	.	16.cc#\LL	.	4A\	mun-	4c#\	mun-	4a\	mun-	8dd\L	mun-	.	4ee\	4ff#\	4ff#\	4aa\
.	.	.	.	.	32a\K	.	.	.	.	.	.	.	.	.	.	.	.	.	.
8A\	.	.	.	.	16.cc#\	.	.	.	.	.	.	.	8cc#X\J	.	.	.	.	.	.
.	.	.	.	.	32ee\JJk	.	.	.	.	.	.	.	.	.	.	.	.	.	.
!	!	!	!LO:TX:t=P:problem=mixed beam	!	!	!	!	!	!	!	!	!	!	!	!	!	!	!	!
8A\	.	.	16.a\LL	.	4aa\	.	4AA/	-di	4c#\	-di	4a\	-di	4cc#\	-di	.	4r	4r	4r	4r
.	.	.	32A/K	.	.	.	.	.	.	.	.	.	.	.	.	.	.	.	.
8A\J	.	.	16.c#/	.	.	.	.	.	.	.	.	.	.	.	.	.	.	.	.
.	.	.	32e/JJk	.	.	.	.	.	.	.	.	.	.	.	.	.	.	.	.
!	!	!	!LO:LB:g=original	!	!	!	!	!	!	!	!	!	!	!	!	!	!	!	!
=23	=23	=23	=23	=23	=23	=23	=23	=23	=23	=23	=23	=23	=23	=23	=23	=23	=23	=23	=23
!	!	!	!	!LO:DY:t=po&colon;	!	!LO:DY:t=pia	!	!	!	!	!	!	!	!	!LO:DY:b:t=pia	!	!LO:SIC:v:s=2d	!	!
8C#\L	6 5	.	(16gn/LL	p	8cc#\L	p	4.C#/	mi-	4e\	mi-	4g\	mi-	4a\	mi-	p	2A/	2f#/	0r	0r
.	.	.	16a/	.	.	.	.	.	.	.	.	.	.	.	.	.	.	.	.
8C#\	.	.	16g/	.	8ee\	.	.	.	.	.	.	.	.	.	.	.	.	.	.
.	.	.	16a/JJ)	.	.	.	.	.	.	.	.	.	.	.	.	.	.	.	.
8C#\	.	.	(16g/LL	.	8a\	.	.	.	4e\	-se-	4g\	-ſe-	4a\	-ſe-	.	.	.	.	.
.	.	.	16a/	.	.	.	.	.	.	.	.	.	.	.	.	.	.	.	.
8C#\J	.	.	16g/	.	8cc#\J	.	8C#/	-se-	.	.	.	.	.	.	.	.	.	.	.
.	.	.	16a/JJ)	.	.	.	.	.	.	.	.	.	.	.	.	.	.	.	.
8D\L	5	.	(16f#/LL	.	8dd\L	.	4D\	-re-	4d\	-re-	4f#\	-re-	4a\	-re-	.	8f#/L	8dd\L	.	.
.	.	.	16a/)	.	.	.	.	.	.	.	.	.	.	.	.	.	.	.	.
8D\	.	.	(16f#/	.	8ff#\J	.	.	.	.	.	.	.	.	.	.	16a/L	8ff#\J	.	.
.	.	.	16a/JJ)	.	.	.	.	.	.	.	.	.	.	.	.	16dd/JJ	.	.	.
8D\	.	.	(16f#/LL	.	4dd\	.	4D\	-re	4d\	-re	4f#\	-re	4a\	-re	.	4f#/	4dd\	.	.
.	.	.	16a/)	.	.	.	.	.	.	.	.	.	.	.	.	.	.	.	.
8D\J	.	.	(16f#/	.	.	.	.	.	.	.	.	.	.	.	.	.	.	.	.
.	.	.	16a/JJ)	.	.	.	.	.	.	.	.	.	.	.	.	.	.	.	.
=24	=24	=24	=24	=24	=24	=24	=24	=24	=24	=24	=24	=24	=24	=24	=24	=24	=24	=24	=24
*	*	*	*	*	*	*	*	*ij	*	*	*	*ij	*	*	*	*	*	*	*
8C#\L	6 5	.	8c#/L	.	(16g/LL	.	4.C#\	mi-	4e\	mi-	4g\	mi-	4a\	mi-	.	2A/	2a/	.	.
.	.	.	.	.	16a/	.	.	.	.	.	.	.	.	.	.	.	.	.	.
8C#\	.	.	8e/	.	16g/	.	.	.	.	.	.	.	.	.	.	.	.	.	.
.	.	.	.	.	16a/JJ)	.	.	.	.	.	.	.	.	.	.	.	.	.	.
8C#\	.	.	8A/	.	(16g/LL	.	.	.	4e\	-se-	4g\	-ſe-	4a\	-ſe-	.	.	.	.	.
.	.	.	.	.	16a/	.	.	.	.	.	.	.	.	.	.	.	.	.	.
8C#\J	.	.	8c#/J	.	16g/	.	8C#\	-se-	.	.	.	.	.	.	.	.	.	.	.
.	.	.	.	.	16a/JJ)	.	.	.	.	.	.	.	.	.	.	.	.	.	.
!	!	!	!	!	!	!	!	!	!	!	!	!	!LO:LB:g=original	!	!	!LO:TX:t=P:problem=mixed beam	!	!	!
8D\L	3	.	8d/L	.	(16f#/LL	.	4D\	-re-	4d\	-re-	4f#\	-re-	4a\	-re-	.	8f#/L	8dd\L	.	.
.	.	.	.	.	16a/	.	.	.	.	.	.	.	.	.	.	.	.	.	.
8D\	.	.	8f#/	.	16f#/	.	.	.	.	.	.	.	.	.	.	8dd\J	8ff#\J	.	.
.	.	.	.	.	16a/JJ)	.	.	.	.	.	.	.	.	.	.	.	.	.	.
8D\	.	.	8a/	.	4f#/	.	4D\	-re	4d\	-re	4f#\	-re	4a\	-re	.	4f#/	4dd\	.	.
8D\J	.	.	8f#/J	.	.	.	.	.	.	.	.	.	.	.	.	.	.	.	.
*	*	*	*	*	*	*	*	*Xij	*	*	*	*Xij	*	*	*	*	*	*	*
!	!	!	!	!	!	!	!	!	!LO:LB:g=original	!	!	!	!	!	!	!	!	!	!
=25	=25	=25	=25	=25	=25	=25	=25	=25	=25	=25	=25	=25	=25	=25	=25	=25	=25	=25	=25
!	!	!	!	!	!	!LO:DY:t=for	!	!	!	!	!	!	!	!	!	!	!	!LO:SIC:v:s=2dd	!
8B\L	6|	.	16dd\LL	.	(16dd\LL	f	8B\	mi-	8d\	mi-	8g#X\	mi-	8dd\	mi-	.	2r	2r	2cc#\	2ee\
.	.	.	16dd\	.	16gg#X\)	.	.	.	.	.	.	.	.	.	.	.	.	.	.
!	!	!	!	!LO:DY:t=for	!	!	!	!	!	!	!	!	!	!	!	!	!	!	!
8B\	.	.	16dd\	f	16gg#'\	.	8B\	-ſe-	8d\	-se-	8g#\	-ſe-	8dd\	-se-	.	.	.	.	.
.	.	.	16dd\JJ	.	16gg#'\JJ	.	.	.	.	.	.	.	.	.	.	.	.	.	.
*	*	*	*tremolo	*	*	*	*	*	*	*	*	*	*	*	*	*	*	*	*
8B\	.	.	16dd\LL	.	(16ddd\LL	.	8B\	-re-	8d\	-re-	8g#\	-re-	8dd\	-re-	.	.	.	.	.
.	.	.	16dd\	.	16gg#\)	.	.	.	.	.	.	.	.	.	.	.	.	.	.
8B\J	.	.	16dd\	.	16gg#'\	.	8B\	-re	8d\	-re	8g#\	-re	8dd\	-re	.	.	.	.	.
*Xtremolo	*	*	*Xtremolo	*	*	*	*	*	*	*	*	*	*	*	*	*	*	*	*
.	.	.	16dd\JJ	.	16gg#'\JJ	.	.	.	.	.	.	.	.	.	.	.	.	.	.
!	!	!	!	!	!	!	!	!	!	!	!LO:LB:g=original	!	!	!	!	!	!	!	!
4A\	6 4	.	16cc#\LL	.	16aa\LL	.	4A\	no-	4e\	no-	4a\	no-	4cc#\	no-	.	8a/L	8a/L	4cc#\	4ee\
.	.	.	16aa\	.	16ccc#\	.	.	.	.	.	.	.	.	.	.	.	.	.	.
.	.	.	16ee\	.	16aa\	.	.	.	.	.	.	.	.	.	.	16a/L	16a/L	.	.
.	.	.	16cc#\JJ	.	16ee\JJ	.	.	.	.	.	.	.	.	.	.	16a/JJ	16a/JJ	.	.
4AA/	5 3	.	16a\LL	.	16cc#\LL	.	4AA/	-bis	4e\	-bis	4a\	-bis	4cc#\	-bis	.	4a/	4a/	4r	4r
.	.	.	16ee\	.	16aa\	.	.	.	.	.	.	.	.	.	.	.	.	.	.
.	.	.	16cc#\	.	16ee\	.	.	.	.	.	.	.	.	.	.	.	.	.	.
.	.	.	16a\JJ	.	16cc#\JJ	.	.	.	.	.	.	.	.	.	.	.	.	.	.
!	!	!	!	!	!LO:LB:g=original	!	!	!	!	!	!	!	!	!	!	!	!	!	!
=26	=26	=26	=26	=26	=26	=26	=26	=26	=26	=26	=26	=26	=26	=26	=26	=26	=26	=26	=26
*tremolo	*	*	*	*	*	*	*	*	*	*	*	*	*	*	*	*	*	*	*
!	!	!	!LO:TX:t=P:problem=mixed beam	!	!	!	!	!	!	!	!	!	!	!	!	!	!	!	!
8Gn\L	4| 2	.	16a\LL	.	16a/LL	.	8Gn\	mi-	8e\	mi-	8a\	mi-	8cc#\	mi-	.	4a/	4ee\	4cc#\	4ee\
.	.	.	16A/	.	16A/	.	.	.	.	.	.	.	.	.	.	.	.	.	.
8G\	.	.	16c#/	.	16c#/	.	8G\	-ſe-	8e\	-ſe-	8a\	-ſe-	8cc#\	-se-	.	.	.	.	.
.	.	.	16e/JJ	.	16e/JJ	.	.	.	.	.	.	.	.	.	.	.	.	.	.
8G\	.	.	16a\LL	.	16a\LL	.	8G\	-re-	8e\	-re-	8a\	-re-	8cc#\	-re-	.	8r	8r	4r	4r
.	.	.	16cc#\	.	16cc#\	.	.	.	.	.	.	.	.	.	.	.	.	.	.
8G\J	.	.	16ee\	.	16ee\	.	8G\	-re	8e\	-re	8a\	-re	8cc#\	-re	.	8a/	8ee\	.	.
.	.	.	16aa\JJ	.	16aa\JJ	.	.	.	.	.	.	.	.	.	.	.	.	.	.
!	!	!	!LO:LB:g=original	!	!	!	!	!	!	!	!	!	!	!	!	!	!	!	!
!	!	!	!LO:TX:t=P:problem=mixed beam	!	!LO:TX:t=P:problem=mixed beam	!	!LO:LB:g=original	!	!	!	!	!	!	!	!	!	!	!	!
8F#\L	6	.	16ff#\LL	.	16dd\LL	.	4F#\	no-	4d\	no-	4a\	no-	4dd\	no-	.	4f#/	4dd\	4dd\	4ff#\
.	.	.	16d/	.	16d/	.	.	.	.	.	.	.	.	.	.	.	.	.	.
8F#\	.	.	16f#/	.	16f#/	.	.	.	.	.	.	.	.	.	.	.	.	.	.
.	.	.	16a/JJ	.	16a/JJ	.	.	.	.	.	.	.	.	.	.	.	.	.	.
8F#\	.	.	16dd/LL	.	16dd/LL	.	4F#\	-bis	4d\	-bis	4a\	-bis	4dd\	-bis	.	4f#/	4dd\	4r	4r
.	.	.	16a/	.	16a/	.	.	.	.	.	.	.	.	.	.	.	.	.	.
8F#\J	.	.	16f#/	.	16f#/	.	.	.	.	.	.	.	.	.	.	.	.	.	.
.	.	.	16d/JJ	.	16d/JJ	.	.	.	.	.	.	.	.	.	.	.	.	.	.
!LO:LB:g=original	!	!	!	!	!	!	!	!	!LO:LB:g=original	!	!	!	!LO:LB:g=original	!	!	!	!LO:LB:g=original	!	!
=27	=27	=27	=27	=27	=27	=27	=27	=27	=27	=27	=27	=27	=27	=27	=27	=27	=27	=27	=27
!	!	!	!LO:TX:t=P:problem=mixed beam	!	!	!	!	!	!	!	!	!	!	!	!	!	!	!	!
8G\L	4| 2	.	16a\LL	.	16a/LL	.	8G\	mi-	8e\	mi-	8a\	mi-	8cc#\	mi-	.	4a/	4ee\	4cc#\	4ee\
.	.	.	16A/	.	16A/	.	.	.	.	.	.	.	.	.	.	.	.	.	.
8G\	.	.	16c#/	.	16c#/	.	8G\	-se-	8e\	-se-	8a\	-ſe-	8cc#\	-ſe-	.	.	.	.	.
.	.	.	16e/JJ	.	16e/JJ	.	.	.	.	.	.	.	.	.	.	.	.	.	.
8G\	.	.	16a\LL	.	16a\LL	.	8G\	-re-	8e\	-re-	8a\	-re-	8cc#\	-re-	.	8r	8r	4r	4r
.	.	.	16cc#\	.	16cc#\	.	.	.	.	.	.	.	.	.	.	.	.	.	.
8G\J	.	.	16ee\	.	16ee\	.	8G\	-re	8e\	-re	8a\	-re	8cc#\	-re	.	8a/	8ee\	.	.
.	.	.	16aa\JJ	.	16aa\JJ	.	.	.	.	.	.	.	.	.	.	.	.	.	.
!	!	!	!LO:TX:t=P:problem=mixed beam	!	!LO:TX:t=P:problem=mixed beam	!	!	!	!	!	!	!	!	!	!	!	!	!	!
8F#\L	6	.	16ff#\LL	.	16dd\LL	.	4F#\	no-	4d\	no-	4a\	no-	4dd\	no-	.	4f#/	4dd\	4dd\	4dd\
.	.	.	16d/	.	16d/	.	.	.	.	.	.	.	.	.	.	.	.	.	.
8F#\	.	.	16f#/	.	16f#/	.	.	.	.	.	.	.	.	.	.	.	.	.	.
.	.	.	16a/JJ	.	16a/JJ	.	.	.	.	.	.	.	.	.	.	.	.	.	.
8F#\	.	.	16dd/LL	.	16dd/LL	.	4F#\	-bis	4d\	-bis	4a\	-bis	4dd\	-bis	.	4f#/	4dd\	4r	4r
.	.	.	16a/	.	16a/	.	.	.	.	.	.	.	.	.	.	.	.	.	.
*Xtremolo	*	*	*	*	*	*	*	*	*	*	*	*	*	*	*	*	*	*	*
8F#\J	.	.	16f#/	.	16f#/	.	.	.	.	.	.	.	.	.	.	.	.	.	.
.	.	.	16d/JJ	.	16d/JJ	.	.	.	.	.	.	.	.	.	.	.	.	.	.
!	!	!	!	!	!	!	!	!	!	!	!	!	!	!	!	!LO:LB:g=original	!	!	!
=28	=28	=28	=28	=28	=28	=28	=28	=28	=28	=28	=28	=28	=28	=28	=28	=28	=28	=28	=28
!	!	!	!	!	!LO:TX:t=P:problem=mixed beam	!	!	!	!	!	!	!	!	!	!	!	!	!LO:SIC:v:s=2gg#	!
8G#X\L	6 5	.	(16b\LL	.	16d/LL	.	4G#X\	mi-	8B\	mi-	8g#X\	mi-	8dd\	mi-	.	1r	1r	2gg\	2bb\
.	.	.	16dd\)	.	(16bb\	.	.	.	.	.	.	.	.	.	.	.	.	.	.
8G#\	.	.	(16b\	.	16ddd\	.	.	.	8B\	-ſe-	8g#\	-ſe-	8dd\	-se-	.	.	.	.	.
.	.	.	16dd\JJ)	.	16bb\JJ)	.	.	.	.	.	.	.	.	.	.	.	.	.	.
8G#\	.	.	(16b\LL	.	(16ddd\LL	.	4G#\	-ſe-	8B\	-re-	8a\	-re-	8dd\	-re-	.	.	.	.	.
.	.	.	16dd\)	.	16bb\)	.	.	.	.	.	.	.	.	.	.	.	.	.	.
8G#\J	.	.	(16b\	.	(16ddd\	.	.	.	8B\	-re	8a\	-re	8dd\	-re	.	.	.	.	.
.	.	.	16dd\JJ)	.	16bb\JJ)	.	.	.	.	.	.	.	.	.	.	.	.	.	.
!	!	!	!	!	!	!	!	!	!	!	!LO:LB:g=original	!	!	!	!	!	!	!LO:SIC:v:s=4ggn	!
8Gn\L	4 2	.	(16a\LL	.	(16ccc#\LL	.	4Gn\	-re-	8A\	mi-	8e\	mi-	8cc#\	mi-	.	.	.	4ff#\	4aa\
.	.	.	16cc#\)	.	16aa\)	.	.	.	.	.	.	.	.	.	.	.	.	.	.
8G\	.	.	(16a\	.	(16ccc#\	.	.	.	8A\	-ſe-	8e\	-se-	8cc#\	-se-	.	.	.	.	.
.	.	.	16cc#\JJ)	.	16aa\JJ)	.	.	.	.	.	.	.	.	.	.	.	.	.	.
!	!	!	!	!	!	!	!	!	!	!	!	!	!	!	!	!	!	!LO:SIC:v:s=4ff	!
8F#\	6	.	16dd\LL	.	(16ddd\LL	.	4F#\	-re	8A\	-re-	8f#\	-re-	8dd\	-re-	.	.	.	4ee\	4aa\
.	.	.	16ff#\	.	16aa\)	.	.	.	.	.	.	.	.	.	.	.	.	.	.
8F#\J	.	.	16dd\	.	(16ddd\	.	.	.	8A\	-re	8f#\	-re	8dd\	-re	.	.	.	.	.
.	.	.	16ff#\JJ	.	16aa\JJ)	.	.	.	.	.	.	.	.	.	.	.	.	.	.
!	!	!	!	!	!LO:LB:g=original	!	!	!	!LO:LB:g=original	!	!	!	!	!	!	!	!	!	!
=29	=29	=29	=29	=29	=29	=29	=29	=29	=29	=29	=29	=29	=29	=29	=29	=29	=29	=29	=29
*	*	*	*	*	*	*	*	*	*2\right	*	*	*	*	*	*	*	*	*	*
!LO:TX:t=P:problem=mixed beam	!	!	!	!	!	!	!	!	!	!	!	!	!	!	!	!	!	!	!
8A\L	6 4	.	(16dd\LL	.	16ff#\LL	.	(4A\	no-	2A\	no-	4f#\	no-	4dd\	no-	.	4dd\	4ff#\	4dd\	4ff#\
.	.	.	16ff#\)	.	16ddd\	.	.	.	.	.	.	.	.	.	.	.	.	.	.
8A\	.	.	(16dd\	.	16ff#\	.	.	.	.	.	.	.	.	.	.	.	.	.	.
.	.	.	16ff#\JJ)	.	16ddd\JJ	.	.	.	.	.	.	.	.	.	.	.	.	.	.
8AA/	5 3	.	(16a\LL	.	16ee\LL	.	4AA/)	.	.	.	4gn\	.	4cc#\	.	.	4a/	4ee\	4cc#\	4ee\
.	.	.	16ee\)	.	16ccc#\	.	.	.	.	.	.	.	.	.	.	.	.	.	.
8AA/J	.	.	(16a\	.	16ee\	.	.	.	.	.	.	.	.	.	.	.	.	.	.
.	.	.	16ee\JJ)	.	16ccc#\JJ	.	.	.	.	.	.	.	.	.	.	.	.	.	.
!	!	!	!LO:LB:g=original	!	!	!	!	!	!	!	!	!	!	!	!	!	!	!	!
8D\L	5_ 3_	.	(16dd\LL	.	16dd\LL	.	4D\	-bis	4A\	-bis	4f#\	-bis	4dd\	-bis	.	8f#/L	8dd\L	4dd\	4ff#\
.	.	.	16ff#\	.	16ddd\	.	.	.	.	.	.	.	.	.	.	.	.	.	.
8D\	.	.	16aa\	.	16aa\	.	.	.	.	.	.	.	.	.	.	16d/L	16dd\L	.	.
.	.	.	16ff#\JJ)	.	16ff#\JJ	.	.	.	.	.	.	.	.	.	.	16d/JJ	16dd\JJ	.	.
8D\	.	.	(16dd/LL	.	16dd\LL	.	8D\	mi-	8A\	mi-	8d\	mi-	8ff#\	mi-	.	8d/L	8dd\L	4r	4r
.	.	.	16a/	.	16ff#\	.	.	.	.	.	.	.	.	.	.	.	.	.	.
8D\J	.	.	16f#/	.	16aa\	.	8D\	-se-	8A\	-ſe-	8d\	-se-	8ff#\	-se-	.	8d/J	8dd\J	.	.
.	.	.	16d/JJ)	.	16ff#\JJ	.	.	.	.	.	.	.	.	.	.	.	.	.	.
!	!	!	!	!	!	!	!	!	!	!	!	!	!LO:LB:g=original	!	!	!	!	!	!LO:LB:g=original
=30	=30	=30	=30	=30	=30	=30	=30	=30	=30	=30	=30	=30	=30	=30	=30	=30	=30	=30	=30
8D\L	6_ 4_	.	(16g/LL	.	16b\LL	.	4D\	-re-	4B\	-re-	4d\	-re-	4gg\	-re-	.	4d/	4dd\	2ee\	2gg\
.	.	.	16b/)	.	16gg\	.	.	.	.	.	.	.	.	.	.	.	.	.	.
8D\	.	.	(16g/	.	16b\	.	.	.	.	.	.	.	.	.	.	.	.	.	.
.	.	.	16b/JJ)	.	16gg\JJ	.	.	.	.	.	.	.	.	.	.	.	.	.	.
8D\	.	.	(16g/LL	.	16b\LL	.	4D\	-re	4B\	-re	4d\	-re	4gg\	-re	.	4d/	4dd\	.	.
.	.	.	16b/)	.	16gg\	.	.	.	.	.	.	.	.	.	.	.	.	.	.
8D\J	.	.	(16g/	.	16b\	.	.	.	.	.	.	.	.	.	.	.	.	.	.
.	.	.	16b/JJ)	.	16gg\JJ	.	.	.	.	.	.	.	.	.	.	.	.	.	.
*	*	*	*	*	*	*	*2\right	*	*	*	*2\right	*	*	*	*	*	*	*	*
8D\L	7_ 2_	.	(16g/LL	.	16ee\LL	.	2D\	no-	2c#\	no-	2d\	no-	2ee\	no-	.	8d/L	8dd\L	2cc#\	2ee\
.	.	.	16a/)	.	16ccc#\	.	.	.	.	.	.	.	.	.	.	.	.	.	.
8D\	.	.	(16g/	.	16ee\	.	.	.	.	.	.	.	.	.	.	16d/L	16dd\L	.	.
.	.	.	16a/JJ)	.	16ccc#\JJ	.	.	.	.	.	.	.	.	.	.	16d/JJ	16dd\JJ	.	.
8D\	.	.	(16g/LL	.	16ee\LL	.	.	.	.	.	.	.	.	.	.	8d/L	8dd\L	.	.
.	.	.	16a/)	.	16ccc#\	.	.	.	.	.	.	.	.	.	.	.	.	.	.
8D\J	.	.	(16g/	.	16ee\	.	.	.	.	.	.	.	.	.	.	8d/J	8dd\J	.	.
.	.	.	16a/JJ)	.	16ccc#\JJ	.	.	.	.	.	.	.	.	.	.	.	.	.	.
=31	=31	=31	=31	=31	=31	=31	=31	=31	=31	=31	=31	=31	=31	=31	=31	=31	=31	=31	=31
*	*	*	*	*	*	*	*	*	*	*	*	*	*	*	*	*	*2\right	*	*
!	!	!	!LO:TX:t=P:problem=mixed beam	!	!	!	!	!	!	!	!	!	!	!	!	!	!	!	!
2D\	8	.	16f#/LL	.	16dd\LL	.	2D\	-bis.	2d\	-bis	2d\	-bis	2ff#\	-bis	.	2d/	2dd\	4dd\	4ff#\
.	.	.	16dd\	.	16f#\	.	.	.	.	.	.	.	.	.	.	.	.	.	.
.	.	.	16a\	.	16a\	.	.	.	.	.	.	.	.	.	.	.	.	.	.
.	.	.	16f#\JJ	.	16f#\JJ	.	.	.	.	.	.	.	.	.	.	.	.	.	.
.	.	.	4d/	.	4d/	.	.	.	.	.	.	.	.	.	.	.	.	4r	4r
!	!	!	!	!	!	!	!	!	!	!	!	!	!	!	!	!	!LO:TX:b:t=fine &colon;/&colon;	!LO:TX:b:t=fine &colon;/&colon;	!LO:TX:b:i:t=fine &colon;/&colon;
2r	.	.	2r	.	2r	.	2r	.	2r	.	2r	.	2r	.	.	2r	2r	2r	2r
==	==	==	==	==	==	==	==	==	==	==	==	==	==	==	==	==	==	==	==
*-	*-	*-	*-	*-	*-	*-	*-	*-	*-	*-	*-	*-	*-	*-	*-	*-	*-	*-	*-
!!!system-decoration: [(g1)][(g2)][(g3)][(g4)]s11
!!!ENC: Krzysztof Stępień
!!!END: 2020-09-11
!!!EED: Andrzej Borzym
!!!EEV: 2022-01-27
!!!YEC: Copyright 2022 Narodowy Instytut Fryderyka Chopina (https://polishscores.org)
!!!YEM: License CC-BY-4.0 (https://creativecommons.org/licenses/by/4.0)
